X: 1
T: Pride Of Moyvane, The
M: 4/4
L: 1/8
R: reel
K: Ddor
ADED DE^FG|A~d3 cAGE|F2 DF E2 CE|cAGF ECCE|
ADED DE^FG|A~d3 cAGE|F2 D~E3 cE|EDCE D2 cB:|
Add^c d2 Ad|d/d/d ^fd dcAB|c2 cd cAGc|AccB cAGc|
Add^c dcAG|Ad^fd dcAG|~F3D E/E/E cE|EDCE D2 cB:|
